X:1
T:jh
T:Thy Hand Belinda
T:Purcell
T:Recitativo
T:Arranjament: Miguel Bochne Junior
%%score 1 { 2 | 3 }
L:1/8
Q:1/8=80
M:4/4
K:B
V:1 treble nm="Dido\n" snm="D."
V:2 treble nm="Piano" snm="Pno."
V:3 bass 
V:1
 z!pp! B B>A B2 B !fermata!z | B =A3- A/G/A/F/ =G>A | =G3 G !fermata!z2 GG | (=G F2) F z F3/2EF/- | %4
w: Thy hand, Be- lin- da:|Dar- * * * * * * kness|shades me: On thy|bo- * som let me rest:|
 F4 !fermata!z2 FF | (FE) z E!<(! (E2 D)E!<)! | D!fermata!D z z !>!C =D2 D | %7
w: * More i|w ould but death * in-|vades me: Death * is|
 ^^C ^C2!pp! ^E (EF)(F^B,) | C4 z4 |] %9
w: now * a wel- * co- me|guest.|
V:2
!pp! [B,=DF]8 | [=A,^DF]8 | [=G,E]8 | [=A,D]4 !fermata![B,E]4 | [A,C]8 | [A,E]8 | %6
 [F,B,D]4 [F,B,=D]4 | [G,C-]4 [F,-C]2{C} [F,^B,]2 | [G,C]4 z4 |] %9
V:3
 [B,,F,]8 | [B,,F,]8 | [E,,E,]8 | [F,,F,]4 !fermata![=G,,=G,]4 | [F,,F,]8 | [F,,F,]8 | [B,,,B,,]8 | %7
 [C,,C,^E,]4 [=D,,=D,]4 | [C,,C,^E,]4 z4 |] %9

